build/category/StudyOutline.svg

<svg xmlns="http://www.w3.org/2000/svg" fill="none" viewBox="0 0 24 24" focusable="false"><path d="M0 0H24V24H0z"/><path fill="#74767B" fill-rule="evenodd" d="M2.71715 10.2408C1.78213 9.76145 1.77266 8.42837 2.70078 7.93574L10.5933 3.74656C11.4728 3.27971 12.5267 3.27971 13.4063 3.74656L21.2988 7.93574C21.6788 8.13747 21.9017 8.48015 21.9681 8.84742C21.9887 8.91072 21.9998 8.97828 21.9998 9.04844L22.0279 15.3469C22.0279 15.7059 21.7369 15.9969 21.3779 15.9969C21.0189 15.9969 20.7279 15.7059 20.7279 15.3469L20.7064 10.5361L18.6298 11.6008L18.6298 15.8656C18.6298 16.7696 18.2291 17.627 17.5358 18.207C14.3202 20.8971 9.6393 20.8971 6.42369 18.207C5.73037 17.627 5.32975 16.7696 5.32975 15.8656L5.32975 11.5803L2.71715 10.2408ZM3.31026 9.08402L11.2028 4.89483C11.7012 4.63029 12.2984 4.63029 12.7968 4.89483L20.6893 9.08402L12.7754 13.1415C12.2884 13.3911 11.7111 13.3911 11.2242 13.1415L3.31026 9.08402ZM6.62975 12.2468L6.62975 15.8656C6.62975 16.3846 6.85976 16.8769 7.25783 17.2099C9.99068 19.4962 13.9688 19.4962 16.7017 17.2099C17.0997 16.8769 17.3298 16.3846 17.3298 15.8656L17.3298 12.2674L13.3685 14.2983C12.5092 14.7388 11.4904 14.7388 10.6311 14.2983L6.62975 12.2468Z"/></svg>

<svg xmlns="http://www.w3.org/2000/svg" fill="none" viewBox="0 0 24 24" focusable="false"><path fill="#74767B" fill-rule="evenodd" d="M2.71 10.24c-.93-.48-.94-1.82-.01-2.31l7.89-4.19c.88-.47 1.93-.47 2.81 0l7.89 4.19c.38.2.61.55.67.91.02.07.04.13.04.2l.02 6.3c0 .36-.29.65-.65.65s-.65-.29-.65-.65l-.02-4.81-2.08 1.07v4.26c0 .9-.4 1.76-1.09 2.34a8.656 8.656 0 0 1-11.11 0c-.69-.58-1.1-1.44-1.1-2.34v-4.28zm.6-1.16 7.89-4.19c.5-.26 1.09-.26 1.59 0l7.89 4.19-7.91 4.06c-.49.25-1.06.25-1.55 0zm3.31 3.16v3.62c0 .52.23 1.01.63 1.34a7.36 7.36 0 0 0 9.45 0c.39-.33.62-.82.62-1.34v-3.6l-3.96 2.03c-.86.44-1.87.44-2.73 0z"/></svg>
